X: 20142
T: Jizaique
R: reel
M: 4/4
K: Eminor
B|:EEGA B2 cB|A3G F3/2G/ AB|EEGA B2 cB|F 2G/F/ G 2A/G/ A2 AB:|
|:cBcA BcBG|EFGA B2 BB|cdcA BcBG|1 EG 2F/E/ D D2DD:|2 EG 2F/E/ D E2EE||

